src/assets/icons/twitter.svg

<?xml version="1.0" encoding="UTF-8"?>
<svg width="32px" height="32px" viewBox="0 0 32 32" version="1.1" xmlns="http://www.w3.org/2000/svg" xmlns:xlink="http://www.w3.org/1999/xlink">
    <!-- Generator: Sketch 61.2 (89653) - https://sketch.com -->
    <title>Atoms/Ikoner/Social/Twitter</title>
    <desc>Created with Sketch.</desc>
    <g id="Atoms/Ikoner/Social/Twitter" stroke="none" stroke-width="1" fill="none" fill-rule="evenodd">
        <path d="M29,7.60440565 C28.0446674,8.0461541 27.0160825,8.3448899 25.9371366,8.47836775 C27.0389738,7.79191055 27.8844277,6.70343085 28.2827375,5.40678935 C27.2511008,6.04239795 26.1111113,6.5048033 24.8932913,6.7526905 C23.9226978,5.67374505 22.5354813,5 21.000235,5 C18.0564066,5 15.6680753,7.4868184 15.6680753,10.5536294 C15.6680753,10.9890215 15.7138581,11.4117009 15.8054236,11.8184902 C11.3721311,11.5864931 7.44244883,9.3777536 4.80994287,6.01379575 C4.35059004,6.8369087 4.08810217,7.79191055 4.08810217,8.8088842 C4.08810217,10.734778 5.02970029,12.4350309 6.46117254,13.4313471 C5.58824908,13.4043339 4.76416013,13.1516793 4.04384583,12.7385336 L4.04384583,12.8068617 C4.04384583,15.498664 5.88278467,17.743951 8.32452917,18.2524375 C7.87738442,18.3827375 7.40582242,18.4478872 6.91900004,18.4478872 C6.57562942,18.4478872 6.23988979,18.4145181 5.91483238,18.3493679 C6.59394263,20.5549295 8.56259925,22.16143 10.8975173,22.2043339 C9.072313,23.6948355 6.77096904,24.5830987 4.27275904,24.5830987 C3.84240163,24.5830987 3.41662238,24.5576744 3,24.5068258 C5.36086175,26.0799567 8.16581542,27 11.1767915,27 C20.9895522,27 26.3537595,18.5384618 26.3537595,11.1987723 C26.3537595,10.9572408 26.3491814,10.7157095 26.3400245,10.4789454 C27.3823445,9.6955579 28.2873156,8.71830965 29,7.60440565" id="Twitter" fill="#2A2859"></path>
    </g>
</svg>

<svg xmlns="http://www.w3.org/2000/svg" width="32" height="32" viewBox="0 0 32 32"><defs><style>.cls-1{fill-rule:evenodd;}</style></defs><g id="twitter"><path id="Twitter-2" data-name="Twitter" class="cls-1" d="M29,7.6a10.27,10.27,0,0,1-3.06.88,5.57,5.57,0,0,0,2.34-3.07,10.54,10.54,0,0,1-3.39,1.34A5.2,5.2,0,0,0,21,5a5.45,5.45,0,0,0-5.33,5.55,5.32,5.32,0,0,0,.14,1.27A14.92,14.92,0,0,1,4.81,6a5.74,5.74,0,0,0-.72,2.8,5.61,5.61,0,0,0,2.37,4.62A5.27,5.27,0,0,1,4,12.74v.07a5.5,5.5,0,0,0,4.28,5.44,4.93,4.93,0,0,1-1.4.2,5.67,5.67,0,0,1-1-.1,5.37,5.37,0,0,0,5,3.85,10.46,10.46,0,0,1-6.63,2.38A10.69,10.69,0,0,1,3,24.51,14.72,14.72,0,0,0,11.18,27C21,27,26.35,18.54,26.35,11.2c0-.24,0-.48,0-.72A10.92,10.92,0,0,0,29,7.6"/></g></svg>
